X:1
T:Title
%%score { ( 1 4 5 ) | ( 2 3 ) }
L:1/8
Q:1/4=192
M:4/2
K:Eb
V:1 treble nm="Grand Piano"
V:4 treble 
V:5 treble 
V:2 bass 
V:3 bass 
V:1
 [EG]4 [DFB]2 [CEA]2 [B,EG]4 .[B,DF]4 | [G,E]4 [B,DF]4 G8 | E4 A2 G2 F4 G4 | A4 c4 [FB]8 | %4
w: J.~Downing~Farrer * * * *||||
 e4 z4 B8 | z4 B4 z8 | %6
w: ||
 z8 z4 .B4[Q:1/4=189][Q:1/4=186][Q:1/4=183][Q:1/4=180][Q:1/4=177][Q:1/4=174][Q:1/4=171][Q:1/4=168][Q:1/4=165][Q:1/4=162][Q:1/4=159][Q:1/4=156][Q:1/4=153][Q:1/4=150][Q:1/4=147] | %7
w: |
 G16 |] %8
w: |
V:2
 E,4 E,2 E,2 E,4 z2 A,2 | C,4 B,,4 [E,B,E]8 | [G,B,]4 [F,B,D]2 [E,B,E]2 [A,CE]4 [G,B,E]4 | %3
 [F,A,D]4 [E,A,E]4 [D,A,]8 | E2- [G,E]2 [F,=A,F]2 [E,A,]2 D,4 E,2 _D,2 | %5
 z2 E,2 .[B,,F,]4 [A,,A,]8 | z8 z4 .F,4 | [E,B,E]16 |] %8
V:3
 z8 z4 B,,4 | x16 | x16 | x16 | .[E,G,]4 z4 z8 | C,4 z4 z8 | =A,,4 B,,2 C,2 B,,4 B,,2- [B,,B,]2 | %7
 x16 |] %8
V:4
 x16 | x16 | x16 | x16 | z2 B,2 d2 [Fc]2 [B,F]4 z2 G2 | .[A,EA]4 E2 [G,_D]2 [Cc]8 | %6
 [CEF]4 [B,EF]2 [=A,EF]2 [B,EF]4 D2- [DA]2 | x16 |] %8
V:5
 x16 | x16 | x16 | x16 | z8 z4 [B,E]4 | x16 | x16 | x16 |] %8

